gama.ui.shared/icons_svg/dark/generic/garbage.collect.svg

<svg height="25" viewBox="-94.774 -3167.932 25 25" width="25" xmlns="http://www.w3.org/2000/svg"><g fill="none"><path d="m-90.4341-3167.4315h16.32c2.12077 0 3.84 1.7192 3.84 3.84v16.32c0 2.1208-1.71923 3.84-3.84 3.84h-16.32c-2.12077 0-3.84-1.7192-3.84-3.84v-16.32c0-2.1208 1.71923-3.84 3.84-3.84z" fill="#666"/><path d="m-90.4341-3167.4315h16.32c2.12077 0 3.84 1.7192 3.84 3.84v16.32c0 2.1208-1.71923 3.84-3.84 3.84h-16.32c-2.12077 0-3.84-1.7192-3.84-3.84v-16.32c0-2.1208 1.71923-3.84 3.84-3.84z" stroke="#fff" stroke-linecap="round" stroke-linejoin="round" stroke-width=".25"/><path d="m-76.05188-3160.765v11.1113c0 1.2273-.99492 2.2222-2.22222 2.2222h-8c-1.2273 0-2.22222-.9949-2.22222-2.2222v-11.1113h-.44445c-.24546 0-.44444-.199-.44444-.4443 0-.2454.19898-.4444.44444-.4444h4v-.4443c0-.7366.59696-1.3335 1.33334-1.3335h2.66666c.73638 0 1.33334.5969 1.33334 1.3335v.4443h4c.24546 0 .44444.199.44444.4444 0 .2453-.19898.4443-.44444.4443zm-11.55555 0v11.1113c0 .7364.59695 1.3333 1.33333 1.3333h8c.73638 0 1.33333-.5969 1.33333-1.3333v-11.1113zm7.11111-.8887v-.4443c0-.2456-.19899-.4446-.44445-.4446h-2.66666c-.24546 0-.44445.199-.44445.4446v.4443zm0 4c0-.2453.19898-.4443.44444-.4443s.44445.199.44445.4443v6.2222c0 .2455-.19899.4445-.44445.4445s-.44444-.199-.44444-.4445zm-4.44445 0c0-.2453.19899-.4443.44445-.4443s.44444.199.44444.4443v6.2222c0 .2455-.19898.4445-.44444.4445s-.44445-.199-.44445-.4445z" fill="#c0e0ff"/></g></svg>

<?xml version="1.0" encoding="UTF-8" standalone="no"?>
<!DOCTYPE svg PUBLIC "-//W3C//DTD SVG 1.1//EN" "http://www.w3.org/Graphics/SVG/1.1/DTD/svg11.dtd">
<svg xmlns="http://www.w3.org/2000/svg" xmlns:xl="http://www.w3.org/1999/xlink" version="1.1" xmlns:dc="http://purl.org/dc/elements/1.1/" viewBox="-94.7741 -3167.9315 25 25" width="25" height="25">
  <defs/>
  <g id="SOURCES" stroke-opacity="1" fill="none" stroke="none" fill-opacity="1" stroke-dasharray="none">
    <title>SOURCES</title>
    <g id="SOURCES_Dark">
      <title>Dark</title>
      <g id="Graphic_11678">
        <path d="M -90.4341 -3167.4315 L -74.1141 -3167.4315 C -71.99333 -3167.4315 -70.2741 -3165.7123 -70.2741 -3163.5915 L -70.2741 -3147.2715 C -70.2741 -3145.1507 -71.99333 -3143.4315 -74.1141 -3143.4315 L -90.4341 -3143.4315 C -92.55487 -3143.4315 -94.2741 -3145.1507 -94.2741 -3147.2715 L -94.2741 -3163.5915 C -94.2741 -3165.7123 -92.55487 -3167.4315 -90.4341 -3167.4315 Z" fill="#666"/>
        <path d="M -90.4341 -3167.4315 L -74.1141 -3167.4315 C -71.99333 -3167.4315 -70.2741 -3165.7123 -70.2741 -3163.5915 L -70.2741 -3147.2715 C -70.2741 -3145.1507 -71.99333 -3143.4315 -74.1141 -3143.4315 L -90.4341 -3143.4315 C -92.55487 -3143.4315 -94.2741 -3145.1507 -94.2741 -3147.2715 L -94.2741 -3163.5915 C -94.2741 -3165.7123 -92.55487 -3167.4315 -90.4341 -3167.4315 Z" stroke="white" stroke-linecap="round" stroke-linejoin="round" stroke-width=".25"/>
      </g>
      <g id="Graphic_11677">
        <path d="M -76.05188 -3160.765 L -76.05188 -3149.6537 C -76.05188 -3148.4264 -77.0468 -3147.4315 -78.2741 -3147.4315 L -86.2741 -3147.4315 C -87.5014 -3147.4315 -88.49632 -3148.4264 -88.49632 -3149.6537 L -88.49632 -3160.765 L -88.94077 -3160.765 C -89.18623 -3160.765 -89.38521 -3160.964 -89.38521 -3161.2093 C -89.38521 -3161.4547 -89.18623 -3161.6537 -88.94077 -3161.6537 L -84.94077 -3161.6537 L -84.94077 -3162.098 C -84.94077 -3162.8346 -84.34381 -3163.4315 -83.60743 -3163.4315 L -80.94077 -3163.4315 C -80.20439 -3163.4315 -79.60743 -3162.8346 -79.60743 -3162.098 L -79.60743 -3161.6537 L -75.60743 -3161.6537 C -75.36197 -3161.6537 -75.16299 -3161.4547 -75.16299 -3161.2093 C -75.16299 -3160.964 -75.36197 -3160.765 -75.60743 -3160.765 Z M -87.60743 -3160.765 L -87.60743 -3149.6537 C -87.60743 -3148.9173 -87.01048 -3148.3204 -86.2741 -3148.3204 L -78.2741 -3148.3204 C -77.53772 -3148.3204 -76.94077 -3148.9173 -76.94077 -3149.6537 L -76.94077 -3160.765 Z M -80.49632 -3161.6537 L -80.49632 -3162.098 C -80.49632 -3162.3436 -80.69531 -3162.5426 -80.94077 -3162.5426 L -83.60743 -3162.5426 C -83.85289 -3162.5426 -84.05188 -3162.3436 -84.05188 -3162.098 L -84.05188 -3161.6537 Z M -80.49632 -3157.6537 C -80.49632 -3157.899 -80.29734 -3158.098 -80.05188 -3158.098 C -79.80642 -3158.098 -79.60743 -3157.899 -79.60743 -3157.6537 L -79.60743 -3151.4315 C -79.60743 -3151.186 -79.80642 -3150.987 -80.05188 -3150.987 C -80.29734 -3150.987 -80.49632 -3151.186 -80.49632 -3151.4315 Z M -84.94077 -3157.6537 C -84.94077 -3157.899 -84.74178 -3158.098 -84.49632 -3158.098 C -84.25086 -3158.098 -84.05188 -3157.899 -84.05188 -3157.6537 L -84.05188 -3151.4315 C -84.05188 -3151.186 -84.25086 -3150.987 -84.49632 -3150.987 C -84.74178 -3150.987 -84.94077 -3151.186 -84.94077 -3151.4315 Z" fill="#c0e0ff"/>
      </g>
    </g>
  </g>
</svg>
